icons/mv-line.svg

<svg xmlns="http://www.w3.org/2000/svg" width="24" height="24" fill="none"><g clip-path="url(#a)"><g><path fill="#121212" d="M2 3.993C2.00183 3.73038 2.1069 3.47902 2.29251 3.29322C2.47813 3.10742 2.72938 3.00209 2.992 3H21.008C21.556 3 22 3.445 22 3.993V20.007C21.9982 20.2696 21.8931 20.521 21.7075 20.7068C21.5219 20.8926 21.2706 20.9979 21.008 21H2.992C2.72881 20.9997 2.4765 20.895 2.29049 20.7088C2.10448 20.5226 2 20.2702 2 20.007V3.993ZM4 5V19H20V5H4ZM12 12.17V6H17V8H14V15C13.9997 15.6368 13.7967 16.2569 13.4206 16.7707C13.0444 17.2844 12.5145 17.6652 11.9076 17.8578C11.3007 18.0505 10.6482 18.045 10.0446 17.8422C9.44098 17.6394 8.91755 17.2498 8.55006 16.7298C8.18256 16.2098 7.99005 15.5864 8.0004 14.9497C8.01074 14.313 8.2234 13.6961 8.60759 13.1883C8.99179 12.6806 9.5276 12.3082 10.1375 12.1251C10.7473 11.942 11.3997 11.9577 12 12.17Z"/></g></g><defs><clipPath id="a"><rect width="24" height="24" fill="white"/></clipPath></defs></svg>

<svg width="24" height="24" fill="none" xmlns="http://www.w3.org/2000/svg"><g clip-path="url(#a)"><path d="M2 3.993A1 1 0 0 1 2.992 3h18.016c.548 0 .992.445.992.993v16.014a1 1 0 0 1-.992.993H2.992A.993.993 0 0 1 2 20.007V3.993ZM4 5v14h16V5H4Zm8 7.17V6h5v2h-3v7a3 3 0 1 1-2-2.83Z" /></g><defs><clipPath id="a"><path fill="#fff" d="M0 0h24v24H0z"/></clipPath></defs></svg>
